public/svgs/vision/vision-decoration-logo-3.svg

<svg width="1em" height="1em" viewBox="0 0 48 48" fill="current" xmlns="http://www.w3.org/2000/svg">
    <g id="Group">
        <path id="Vector" d="M5.94544 38.3675C5.03893 36.2694 4.80531 34.076 5.11106 31.7967C5.41898 29.5044 6.37393 27.5123 7.50868 25.5803C6.01434 26.1219 4.87636 27.1356 4 28.5366C4.40804 26.4386 5.43943 24.7585 6.81965 23.3045C8.19879 21.8516 9.86216 20.8921 11.5933 20.0267C10.1109 19.5876 8.69941 19.8101 7.31381 20.4482C9.49288 17.8651 12.2339 16.583 15.4756 16.2592C15.3389 16.1462 15.2915 16.0885 15.2323 16.0602C14.9696 15.9354 14.7123 15.773 14.4367 15.7082C12.924 15.3538 11.406 15.0253 9.99566 14.711C9.96336 14.7228 10.0732 14.6698 10.1873 14.6392C11.9971 14.1647 13.8338 14.0058 15.6856 14.1788C17.8883 14.3849 20.006 14.9194 21.8567 16.3404C22.8278 17.0857 22.8504 17.7403 21.9805 18.6092C21.6521 18.9365 21.3701 19.3191 21.0675 19.6759C21.0966 19.7112 21.1268 19.7465 21.1558 19.7818C22.5091 18.8058 24.0207 18.6751 25.5452 18.9294C26.9039 19.1555 28.2399 19.5487 29.5825 19.889C30.1423 20.0314 30.6914 20.2269 31.2458 20.3976C31.0316 20.0561 30.7829 19.7971 30.4911 19.6288C29.3015 18.9471 28.1118 18.2666 26.8996 17.6367C24.8346 16.563 22.8558 15.3526 21.1924 13.6043C21.0503 13.4548 20.9179 13.2946 20.7866 13.1333C20.6692 12.9885 20.5594 12.8355 20.4463 12.6859C22.4725 13.9551 24.5009 15.1254 26.7671 15.7C26.8037 15.6587 26.8393 15.6175 26.8759 15.5763C26.3806 14.9194 25.8854 14.2612 25.3912 13.6043C25.4268 13.5536 25.4634 13.503 25.4989 13.4512C27.4249 14.8005 29.351 16.1497 31.3514 17.5508C31.1974 17.3341 31.107 17.1716 30.9853 17.0433C30.2758 16.298 29.6191 15.4715 28.8321 14.8381C26.9136 13.2946 24.9358 11.8406 22.9785 10.3548C20.6897 8.61702 18.7711 6.52016 17.5653 3.72396C17.0033 2.42181 16.647 0.82179 16.7568 0C17.8732 5.2133 23.4867 9.29164 25.8003 10.6527C25.2502 8.95492 25.2114 8.72652 25.3891 8.0413C25.8262 9.42586 26.6401 10.4655 27.5746 11.3885C28.6512 12.4528 29.7816 13.45 30.868 14.5014C31.5494 15.1607 32.1933 15.8683 32.8532 16.5547C32.3365 15.4492 31.7206 14.4225 31.1016 13.3994C29.9916 11.5663 28.9053 9.72138 28.4617 7.53033C28.2281 6.37299 28.2389 5.2863 28.5242 4.50807C28.5769 4.97783 28.6049 5.38402 28.6717 5.78314C29.0452 8.02011 30.0863 9.9227 31.2771 11.7205C32.5905 13.702 33.9869 15.6199 35.3574 17.5566C35.6707 17.9993 36.0249 18.4055 36.3598 18.8294C35.6933 17.1563 35.2185 15.4786 35.4436 13.6384C35.7525 15.3621 36.475 16.8844 37.3233 18.3419C38.0597 19.6076 38.6185 20.9498 38.9695 22.4061C39.2634 23.6294 39.9029 24.6478 40.7566 25.4955C41.113 25.8499 41.5307 26.3244 42.0163 26.0618C42.3457 25.8829 42.5126 25.3495 42.7419 24.9916C43.1973 26.2584 43.0348 27.5888 42.3748 28.8545C41.675 30.1967 40.6156 31.0008 39.076 31.2857C39.3398 31.0302 39.5035 30.8842 39.6542 30.7229C41.211 29.0676 40.8008 27.1308 38.7681 26.3467C38.3784 26.196 38.0037 25.8369 37.7497 25.4684C37.4654 25.0575 37.3276 24.5265 37.1263 24.0474C37.1058 23.9991 37.0875 23.9508 37.0649 23.8943C36.9863 23.9767 36.9153 24.0509 36.8248 24.1463C36.5622 23.7354 36.3188 23.3468 36.0669 22.9677C35.9991 22.8653 35.9054 22.7146 35.8171 22.7099C35.1604 22.671 34.8934 22.1542 34.5855 21.6314C34.3088 21.1617 34.0181 20.6272 33.6058 20.3411C32.5033 19.5758 31.332 18.9282 30.1886 18.2336C30.1531 18.2925 30.1176 18.3513 30.0809 18.4102C30.3846 18.7046 30.6742 19.0201 30.9961 19.2885C31.3094 19.5487 31.6517 19.7677 31.9887 19.9902C32.7822 20.513 33.2677 21.1982 33.1934 22.2896C33.1331 23.1738 33.4895 23.8719 34.1678 24.3876C35.1292 25.1188 35.843 26.0889 36.3748 27.225C36.4889 27.4676 36.6128 27.7148 36.7753 27.9185C36.9347 28.1175 37.1317 28.3518 37.3449 28.4012C37.4708 28.4306 37.6603 28.1292 37.8519 27.9479C37.8681 28.5472 38.0447 29.1512 37.53 29.595C36.8184 30.2096 34.9763 30.1602 34.2442 29.5044C34.3777 29.4785 34.5047 29.4691 34.6221 29.4302C35.0646 29.283 35.4629 29.0629 35.6018 28.5272C35.7493 27.9562 35.5964 27.4311 35.1819 27.1061C34.789 26.7977 34.3185 26.574 33.8534 26.4162C33.3269 26.2372 32.7509 26.229 32.2266 26.0465C30.9132 25.5885 29.6148 25.0811 28.1613 25.7039C28.5952 24.596 29.365 23.9944 30.2295 23.3892C27.7361 22.0671 25.3094 21.8551 22.8364 23.2256C23.7515 21.9281 25.1016 21.3465 26.4883 20.5542C25.2836 20.3846 23.3113 21.3235 22.4101 21.781C20.5799 22.7099 18.1533 24.7614 17.2217 26.7847C16.4423 28.4777 15.8061 30.6711 16.2497 32.436C16.7374 34.3751 17.5879 35.7655 19.0414 36.9817C19.4612 37.3338 19.9123 37.6399 20.3494 37.9672C19.1985 37.7611 18.1176 37.3408 17.1799 36.6144C16.2411 35.888 15.3723 35.0509 14.4539 34.2456C14.5293 35.5359 14.9427 36.7204 15.5467 37.8424C18.2694 42.8955 23.8172 44.9865 28.7061 43.9399C32.7402 43.0769 35.6406 40.4514 37.6474 36.592C38.021 35.8738 38.3203 35.1097 38.654 34.3668C37.8261 40.482 34.7287 44.7181 29.478 46.8044C23.8129 49.0554 18.3728 48.05 13.3751 44.4438C10.2056 42.1574 7.96732 39.0456 7.03712 34.9331C6.97899 34.6765 6.92408 34.4198 6.83472 34.0136C5.96805 35.4335 5.80117 36.8558 5.94544 38.3675ZM23.4813 12.2668C23.4458 12.3139 23.4103 12.3598 23.3736 12.4069C20.4054 11.0494 17.4124 9.74021 14.8469 7.53975C13.4645 6.35416 12.2953 4.95193 11.5072 3.22241C11.1401 2.41592 10.8946 1.54233 10.5932 0.699346C10.6459 0.673444 10.6976 0.647542 10.7504 0.62164C11.8539 3.22241 13.5894 5.21919 15.7458 6.78271C17.0873 7.7552 18.4966 8.6182 19.8499 9.57303C21.0783 10.4407 22.2723 11.3673 23.4813 12.2668ZM8.54869 7.7034C8.59175 7.72577 8.64451 7.73754 8.67788 7.77168C10.1442 9.30106 11.9045 10.2724 13.7918 11.0082C14.6671 11.3496 15.551 11.6722 16.4004 12.0784C17.2434 12.4823 17.9798 13.0827 18.6505 13.828C17.8151 13.5607 17.0475 13.2122 16.2497 13.0792C14.6929 12.8202 13.3095 12.1314 11.9777 11.2719C10.5921 10.376 9.39814 9.24808 8.54869 7.7034Z" fill="current"/>
    </g>
</svg>

<svg xmlns="http://www.w3.org/2000/svg" width="1em" height="1em" fill="current" viewBox="0 0 48 48"><path d="M5.945 38.368c-.906-2.099-1.14-4.292-.834-6.571.308-2.293 1.263-4.285 2.398-6.217-1.495.542-2.633 1.556-3.509 2.957.408-2.098 1.44-3.778 2.82-5.232 1.379-1.453 3.042-2.413 4.773-3.278-1.482-.44-2.894-.217-4.28.421 2.18-2.583 4.92-3.865 8.163-4.189-.137-.113-.185-.17-.244-.199-.262-.125-.52-.287-.795-.352-1.513-.354-3.031-.683-4.441-.997a.8.8 0 0 1 .191-.072 15.8 15.8 0 0 1 5.499-.46c2.202.206 4.32.74 6.17 2.161.972.746.994 1.4.124 2.27-.328.326-.61.71-.913 1.066l.089.106c1.353-.976 2.865-1.107 4.39-.853 1.358.227 2.694.62 4.037.96.56.142 1.108.338 1.663.509-.214-.342-.463-.6-.755-.77-1.19-.68-2.38-1.361-3.591-1.991-2.065-1.074-4.044-2.284-5.708-4.033a8 8 0 0 1-.405-.47c-.118-.146-.228-.299-.34-.448 2.026 1.27 4.054 2.44 6.32 3.014l.109-.124-1.485-1.972.108-.153 5.852 4.1c-.154-.217-.244-.38-.366-.508-.71-.745-1.366-1.571-2.153-2.205-1.918-1.543-3.896-2.997-5.853-4.483-2.29-1.738-4.208-3.835-5.414-6.631-.562-1.302-.918-2.902-.808-3.724 1.116 5.213 6.73 9.292 9.043 10.653-.55-1.698-.589-1.926-.41-2.612.436 1.385 1.25 2.425 2.185 3.348 1.076 1.064 2.207 2.061 3.293 3.112.681.66 1.325 1.367 1.985 2.054-.517-1.106-1.132-2.133-1.751-3.156-1.11-1.833-2.197-3.678-2.64-5.869-.234-1.157-.223-2.244.062-3.022.053.47.08.876.148 1.275.373 2.237 1.414 4.14 2.605 5.937 1.313 1.982 2.71 3.9 4.08 5.837.314.442.668.849 1.003 1.272-.667-1.673-1.142-3.35-.916-5.19.308 1.723 1.031 3.245 1.88 4.703a15 15 0 0 1 1.645 4.064c.294 1.223.934 2.242 1.788 3.09.356.354.774.828 1.26.566.329-.18.496-.713.725-1.07.455 1.266.293 2.597-.367 3.863-.7 1.342-1.76 2.146-3.299 2.43.264-.255.428-.4.578-.562 1.557-1.655 1.147-3.592-.886-4.376-.39-.151-.764-.51-1.018-.879-.285-.41-.422-.942-.624-1.42l-.061-.154-.24.252c-.263-.41-.506-.8-.758-1.178-.068-.103-.162-.253-.25-.258-.657-.039-.924-.556-1.231-1.079-.277-.47-.568-1.004-.98-1.29-1.103-.765-2.274-1.413-3.417-2.107l-.108.176c.304.295.593.61.915.878.313.26.656.48.993.702.793.523 1.279 1.208 1.204 2.3-.06.884.297 1.582.975 2.098.961.73 1.675 1.7 2.207 2.837.114.243.238.49.4.694.16.198.357.433.57.482.126.03.315-.272.507-.453.016.6.193 1.203-.322 1.647-.712.615-2.554.565-3.286-.09.134-.026.26-.036.378-.075.443-.147.84-.367.98-.903.147-.57-.006-1.096-.42-1.42-.393-.31-.864-.533-1.329-.69-.526-.18-1.102-.188-1.626-.37-1.314-.459-2.612-.966-4.066-.343.434-1.108 1.204-1.71 2.069-2.315-2.494-1.322-4.92-1.534-7.394-.163.916-1.298 2.266-1.88 3.652-2.672-1.204-.17-3.177.77-4.078 1.227-1.83.929-4.257 2.98-5.188 5.004-.78 1.693-1.416 3.886-.972 5.651.487 1.94 1.338 3.33 2.791 4.546.42.352.871.658 1.308.985-1.15-.206-2.231-.626-3.17-1.353-.938-.726-1.807-1.563-2.725-2.368.075 1.29.489 2.474 1.093 3.596 2.722 5.054 8.27 7.145 13.16 6.098 4.033-.863 6.934-3.489 8.94-7.348.374-.718.673-1.482 1.007-2.225-.828 6.115-3.925 10.351-9.176 12.437-5.665 2.251-11.105 1.246-16.103-2.36-3.17-2.287-5.408-5.398-6.338-9.51-.058-.258-.113-.514-.202-.92-.867 1.42-1.034 2.842-.89 4.353m17.536-26.101-.107.14c-2.969-1.358-5.962-2.667-8.527-4.867-1.383-1.186-2.552-2.588-3.34-4.318-.367-.806-.612-1.68-.914-2.523l.157-.077c1.104 2.6 2.84 4.597 4.996 6.16 1.341.973 2.75 1.836 4.104 2.791 1.228.868 2.422 1.794 3.631 2.694M8.55 7.703c.043.023.096.035.129.069 1.466 1.53 3.226 2.5 5.114 3.236.875.342 1.759.664 2.608 1.07.843.404 1.58 1.005 2.25 1.75-.835-.267-1.602-.616-2.4-.749-1.557-.259-2.94-.948-4.272-1.807-1.386-.896-2.58-2.024-3.43-3.569"/></svg>
